X:1
T:Suite for Three Violins
T:Op. 133
T:Emanuel Moór
T:VIOLIN 2
%%score ( 1 2 )
L:1/8
Q:1/4=90
M:4/4
K:Bb
V:1 treble nm="Violin"
V:2 treble 
V:1
"^I"!f!"^Andante espressivo" [GB]6 z2 | [GB]4!p! (C2 [A,^F]2) | [B,G]4 (^F2 G=F) | E2 z2 (E2 C2) | %4
!p! B,2 z2 B,2 z2 |!<(! G4!>(! G4!<)!!>)! | [_GB]4 [EG]2 [EF]2 | [CE]4 [EF]4 | [DF]4 z4 | %9
 [Dc]4 [Dc]4 | [DB]4 z4 | z8 | (_G4 F4) | B,4 B,4 | (F2!<(! _F4) F2!<)! | [Ec]2 z2 z4 | %16
 z!pp! ^C/=E/ ^G2 z C/^F/ A2 |"^cresc." (=E^F)(^GF GA)(EF) | =E2 A^G (^F^D)(G^G,) | %19
 !tenuto!^C2 !tenuto!C2 !tenuto!C2 ^c2- | c4 z2 A2 |!ff! d4 (b4 | a4)!<(! (_a4-!<)! | %23
!>(! a4 g4)!>)! | g4 (f2 d2) | (B2 G2) e4 | (e4 d2)!<(! (Bc)!<)! | [Af]4 a4 | (ag)(ba gf)(=ed) | %29
 (3(cc'd) (3(=ec'f) (3(gc'b) (3(ac'g) | (AB)!<(!(cG) (AB)(GA)!<)! |!p! [A^c]6 z2 | d z [Bd] z z4 | %33
 z4!pp! ^D4 | z4 F4 | (_G4 =G4) |"^cresc." ^G4 (^c2 =B2) | (^A2 =B2) (^cA) T^d2 | %38
!f!{^^c^d} [^D=B^g]2 z2 [=E^c]2 z2 | [^D=B^g]2 z2 z4 | =B2 z2 ^G2 (3(^D^CD) | %41
 z2!pp! (3^B,!>(!B,B, z2!>(! (3^G,G,G,!>)!!>)! | !>!A,8- | %43
 (3A,A,A,- (3A,A,A,- (3A,A,A,- (3A,A,A,- | (3A,A,A,- (3A,A,A,- (3A,A,A,- (3A,A,A, | %45
 (3G,G,G, G,2- (3G,G,G, G,2 | (3DDD- (3DDD- (3DDD- (3DDD | (3CCC- (3CCC- (3CCC- (3CCC | %48
 (3DDD- (3DDD- (3DDD- (3DDD | D4!<(! TA3 B!<)! | [G,DB] z z2 z4 | z2"^pizz." G,2 z2 G,2 | %52
 z4"^arco" G4 | z4 (E2 D2) | z2 G6 | G6 (3(_ABA) |!<(! (3(G_A=A) (3(Bc^c) (3(ded) (3(f=e_e)!<)! | %57
 (3(dcd (3Bcd) (3(ded (3cBA) |!pp! G2 (G2 B2) (B2 | G2) (GA B2) (^F2 | G4)!<(! G4-!<)! | %61
"^Rit." G4!<(! [GB]4!<)! |!ppp! !fermata!B8 |][M:4/4][Q:1/4=120] z8 | z8 | z8 | z8 | z8 | z8 | %69
!pp! ._d.d.fd _ad_gb | ._a_d'- d'/a/b/a/ _g/e/f/c/ d/f/g/b/ | _a_d'- d'/a/b/a/ _g/e/f/c/ d/f/g/b/ | %72
 _a/_g/f/e/ _d/e/f/A/ d/d/d/A/ f/f/f/d/ | A/A/A/^c/ =e/e/e/c/ A/A/A/c/ e/e/e/c/ | %74
 =c/=e/d/^c/ =c^c/d/ e/g/=c/e/ f/e/d/e/ | c/B/A/G/ F/G/A/G/ F/D/=E/B,/ C/E/F/E/ | %76
 F/B/A/G/ F/G/A/G/ F/D/=E/B,/ C/E/F/E/ | F2 F2 F2 _GE/G/ | _A/c/B/G/ A/c/_d/e/ f/e/d/f/ e/d/B/A/ | %79
 B/_A/F/_D/ E/_G/B/c/ _d/c/A/F/ G/B/d/e/ | f/e/_d/c/ B/c/d/F/ _G/_A/B/G/ E/C/_D/C/ | %81
 B,2 _A,2 z2 _D_G | EE!>!_GE BE!>!G_c | !>!=E=e!>!=B^c !>!^GA!>!B=B, | (=E6 ^D2) | =E4 E4 | %86
 EE/F/!<(! ^F/G/B/A/!>(! B/A/G/=F/ E/D/B,/C/!<)!!>)! | !>!DD!>!^FD !>!AD!>!GB | %88
 A!>!d- d/A/B/A/ G/=E/^F/^C/ D/F/G/B/ | Ad- d/^F/G/B/ B,B- B/_D/E/_A/ | F(ded) (cde)!tenuto!c | %91
!ff! [Fd]2 z2 z4 | z2 z2 F2 z2 | z2 z2 F2 z2 | F4 G,4 | %95
 E/G/c/d/ e/c/_d/=d/ e/d/c/G/!<(! A/B/=B/c/!<)! | !>!ddfd BdFB | DBFD BFDB | GeBG eBGe | %99
 (_A2 G2 F2 E2) | D2 z2 z4 | eege bege | b(_de)(d g)(eb)d | c(e_ac') B(_d_Ad) | %104
 G/_A/B/c/ _d/=d/e/f/ g/_a/b/c'/ _d'/f'/e'/g'/ | _a' z z2 z4 | ^D z z2 ^F/^G/^A/=B/ ^c/^d/=e/^f/ | %107
 =e/d/^c/=B/ A/B/c/d/ e/d/c/d/ e/f/g/e/ | d2 z2 z2 ^f2- | f4 ^f4 | [G,D=Bg]2 z2 z4 |!ff! =E4 z4 | %112
 CC=EC GCFA | Gc- c/G/A/G/ F/D/=E/=B,/ C/E/F/A/ | Gc- c/!>(!=E/G/c/ =ec- c/G/c/e/!>)! |!p! c4 c4 | %116
 _d/_A/d/A/ F/d/f/_a/ =a/^f/^c'/a/ f/^c/f/a/ | d'2 z2 D2 z2 | _D2 z2 [B_d]2 z2 | %119
!f! _AAc!<(!A eA_df!<)! | e_a- a/e/f/e/ _d/B/c/G/ _A/c/d/f/ | !>!e4 !>!_A4 | !>!c4 !>!=A4 | %123
 f2 z2 z4 | B,2 z2 z4 |!p! d z (d2 e2 dc) | d z (d2 e2 dc) | %127
 d/e/c/d/ e/f/g/e/ d/e/f/g/ _a/b/_c'/a/ | g z (c'2 b4- | b4) b4 | b z z2 z2 F z | %131
!ff! [Fd]2 bf eege- | efdB- Bcde | fbfd BBee- | efdB- Bcde | f6 z2 | %136
 z2 G/A/B/c/ d/G/A/B/ c/d/e/c/ | [Fd] z _GE F z D z |!ff! !fermata!B,8 || %139
[K:Eb][M:4/4][Q:1/4=72]"^Adagio espressivo"!p! (E4 F4) | F4 F4 | A4 A4 | (A4 G4) | %143
"^III" (G2 AG) F4 | [B,E]4 (c2 d2 | e4) e4 | [ef]4 [_df]4 | [_d_g]4 z4 | A4 A4 | %149
 G4!<(! (d2 =e2)!<)! | f4 f4 | a4 d4 |!pp! [Gc]4 z4 | [_G_c]4 z4 | d4 d4 | (e2 d_d) [cf]4 | f4 f4 | %157
 a4 a4- | a4 g4 | [^c=e]4 ([ce]2 [df]2) | (g2 f=e) (=a2 b2) | (=a4 g4) | %162
 [=eg]2 (B>A) ([GB]2 [FA]2) | (B4 d4) |!<(!!>(! =A8!<)!!>)! |!pp! (F2 =A2) (3GGA B2 | %166
 (3(d=ef (3e=B_B) (3(Adf (3e=B_B) | (=Ad) (3(d=ef) _g4 | d2 f2 ez/f/ _g2 | f4 f2 (e_d) | %170
 c4 (c2 _d2) | [G^c]4 ([Gc]2 [Fd]2) | [=Ed]2 g2 (bf)(g=e) | [=Af]4 (3[=eg](ed) [^cg]2 | %174
!pp! (3(d=ef (3dfe) (3(f=af (3dfe) | f4 z4 | (3B,(B,C) TD2{CD} D2 D2 | (3(FEF (3GAF) (3GAB _d2 | %178
 (ce) d2 (3(dcd (3e=ef) | (e2 _c>e) A4 | (3(GgG) Tg2{^fg} e4- | e4[Q:1/4=72]"^Poco Rall." (a2 A2) | %182
[Q:1/4=72]"^Tempo I" (G2 B2 e4) | f4 f4 | a4 a4 | b4 (b2 g2) | (g2 ag) (f4 | e4) (e2 d2) | %188
 [Ec]4 (B2 A2) |!<(! G2 [B,_D]2 [CE]2 [=DF]2!<)! | G4!<(! G4!<)! | _G4 G4 |!>(! F4 z4!>)! | %193
 z4!pp! (F4 | _F4) E4 |!>(! E4 z4!>)! | E4 (c2 d2) |!pp! [Bg]4 [Bg]4 | !fermata![Bg]8 || %199
[K:G][M:3/4]"^IV"!f![Q:1/4=158]"^Allegro Vivace" B2 z4 | z6 | z6 | z6 | z6 | z6 | z6 |!p! d3 A A2 | %207
 F3 D D2 | GF ED ^CB, | A,2 D2 E2 | F2 D2 B,2 | !>!^G,G, G,4 | !>!EE E4 | A,B, ^CD EF | %214
 GA B z A z | G2 F2 E2 |!<(! D2 !^!D2 !^!^C2!<)! | !^!C2 !^!B,2 !^!A,2 | G,6- | G,6 | A,6 | %221
 Fc Be cf | gd Bd GB | A^G =GF ED | ^CD EF GA | FG Ac AF | GA _BG AB | c^c g_B cg | A_B cd BG | %229
 _Bd c=B c_B | Ac _ec de | _Bc _eg ec |!pp! =fd _B=F Bd | c_B AB c_e | =FF F4 | _E6 | _E6 | %237
 z2 G2 z2 | z2 _ED CE | A,_B, CD _E=F | G_A =A_B =Bc | _B2 d2 B2 | =F2 D2 F2 | %243
!<(! _B,D _E=E FG!<)! | _AG =F_E DC |!<(! B,D =FG _A_B!<)! |!>(! B_A G=F _ED!>)! | C2 z4 | z6 | %249
 z6 | z6 | z6 | z2 =F z C z | z6 | z6 | g3 d d2 | _B3 G G2 | _ed c_B AG | z6 |"^" TD6 | %260
 D2 C2 _B,2 | A,2 _B,2 C2 | DD D4- | D2 D2 D2 | [G,_Ec]2 z4 | C z _E z G z | =FG _Ac B=A | %267
 _AG =F_E DC | B,2 G2 _E2 | =F2 C2 _E2 | D2 D2 B,2 | _A2 z2 G=F | _E2 z4 | =F2 z4 | C2 z4 | %275
 _B,2 z4 | z6 | B,2 z4 | A2 z4 | z6 | _ed e_B ed | _dc d_A dc | _Bc _d_e =e=f | _dc _Bg _a_b | %284
 c'2 z4 | _B,2 z4 | C2 z2 =F_E | =F2 z2 _E2 | _Ac _ec Ac | _ec _A_B c_d | _e_g e_c _G_E | _C2 z4 | %292
 _a3 _e e2 | c3 _A A2 |!p! A^c eA ce | ae ae a^c' | d'2 z4 | z6 | b2 ga b2- | b2 ef g2- | %300
 g2 ^cd e2- | e!<(!^c AB cd!<)! | ef ga b^c' |!ff! d'2 a2 f2 | d2 A2 F2 | DD D4- | D6 | [_EG]6- | %308
 [EG]6 | _EE E4- | E6 | _E2 z4 | =F2 z4 | _A2 z4 | _d2 z4 | _ag a_e ag | fe f^d Bd | =fe f_B df | %318
 e^d e^c Ac | d^c dA dc | D2 z4 | G2 z4 | [Ec]2 z4 | A2 z4 | [Ac]2 z4 | [cd]2 z4 | [cd]2 z4 | %327
!ff! _ed ed c_B | Ac _BA GG | [G,DB]2 z4 | G3 D D2 | ED CD EF | GF EF GA | BA GA Bd | ec Af ga | %335
 (b2 g2) (d2 | B2) (G2 d2) | g4 [DAf]2 |!ff! !fermata![G,DBg]6 |] %339
V:2
 x8 | x8 | x8 | x8 | x8 | x8 | x8 | x8 | x8 | x8 | x8 | x8 | x8 | x8 | x8 | x8 | x8 | x8 | x8 | %19
 x8 | x8 | x8 | x8 | x8 | x8 | x8 | x8 | x8 | x8 | x8 | x8 | x8 | x8 | x8 | x8 | x8 | x8 | x8 | %38
 x8 | x8 | x8 | x8 | x8 | x8 | x8 | x8 | x8 | x8 | x8 | x8 | x8 | x8 | x8 | x8 | x8 | x8 | x8 | %57
 x8 | x8 | x8 | x8 | x8 | x8 |][M:4/4] x8 | x8 | x8 | x8 | x8 | x8 | x8 | x8 | x8 | x8 | x8 | x8 | %75
 x8 | x8 | x8 | x8 | x8 | x8 | x8 | x8 | x8 | x8 | x8 | x8 | x8 | x8 | x8 | x8 | x8 | x8 | x8 | %94
 x8 | x8 | x8 | x8 | x8 | x8 | x8 | x8 | x8 | x8 | x8 | x8 | x8 | x8 | x8 | x8 | x8 | x8 | x8 | %113
 x8 | x8 | x8 | x8 | x8 | x8 | x8 | x8 | x8 | x8 | x8 | x8 | x8 | x8 | x8 | x8 | x8 | x8 | x8 | %132
 x8 | x8 | x8 | x8 | x8 | x8 | x8 ||[K:Eb][M:4/4] x8 | x8 | x8 | x8 | x8 | x8 | x2 x2 (B2 c2) | %146
 x8 | x8 | x8 | x8 | x8 | (f2 e2) x4 | x8 | x8 | x8 | x8 | x8 | x8 | x8 | x8 | x8 | x8 | x8 | x8 | %164
 x8 | x8 | x8 | x8 | x8 | x2 x2 (3_dcB B2 | x8 | x8 | x2 =e>d x4 | x8 | x8 | x8 | x8 | x8 | x8 | %179
 x8 | x8 | x8 | x8 | x8 | x8 | x8 | x8 | x8 | x8 | x8 | x8 | x8 | x8 | x8 | x8 | x8 | x8 | x8 | %198
 x8 ||[K:G][M:3/4] x6 | x6 | x6 | x6 | x6 | x6 | x6 | x6 | x6 | x6 | x6 | x6 | x6 | x6 | x6 | x6 | %215
 x6 | x6 | x6 | x6 | x6 | x6 | x6 | x6 | x6 | x6 | x6 | x6 | x6 | x6 | x6 | x6 | x6 | x6 | x6 | %234
 x6 | x6 | x6 | x6 | x6 | x6 | x6 | x6 | x6 | x6 | x6 | x6 | x6 | x6 | x6 | x6 | x6 | x6 | x6 | %253
 x6 | x6 | x6 | x6 | x6 | x6 | x6 | x6 | x6 | x6 | x6 | x6 | x6 | x6 | x6 | x6 | x6 | x6 | x6 | %272
 x6 | x6 | x6 | x6 | x6 | x6 | x6 | x6 | x6 | x6 | x6 | x6 | x6 | x6 | x6 | x6 | x6 | x6 | x6 | %291
 x6 | x6 | x6 | x6 | x6 | x6 | x6 | x6 | x6 | x6 | x6 | x6 | x6 | x6 | x6 | x6 | x6 | x6 | x6 | %310
 x6 | x6 | x6 | x6 | x6 | x6 | x6 | x6 | x6 | x6 | x6 | x6 | x6 | x6 | x6 | x6 | x6 | x6 | x6 | %329
 x6 | x6 | x6 | x6 | x6 | x6 | x6 | x6 | x6 | x6 |] %339

